fs/vote_20_filled.svg

<svg viewBox="0 0 20 20" fill="none" xmlns="http://www.w3.org/2000/svg" height="1em" width="1em">
  <path d="M13.5 9H12.2323L13.9643 6.00017C14.2404 5.52187 14.0765 4.91028 13.5982 4.63414L11.0002 3.13414C10.5219 2.858 9.91028 3.02187 9.63414 3.50017L7.13414 7.83029C6.91184 8.21533 6.9747 8.68674 7.25718 9H6.5C6.22386 9 6 9.22386 6 9.5C6 9.77614 6.22386 10 6.5 10H13.5C13.7761 10 14 9.77614 14 9.5C14 9.22386 13.7761 9 13.5 9ZM10.5002 4.00017L13.0982 5.50017L11.0776 9H9.16013L8.00017 8.33029L10.5002 4.00017ZM14.5367 7.00067L13.9597 8H14.5L16.75 11H3.25L5.5 8H5.90607C5.92639 7.94214 5.95234 7.88534 5.98412 7.83029L6.46349 7H5.5C5.18524 7 4.88885 7.14819 4.7 7.4L2.2 10.7333C2.07018 10.9064 2 11.117 2 11.3333V16C2 16.5523 2.44772 17 3 17H17C17.5523 17 18 16.5523 18 16V11.3333C18 11.117 17.9298 10.9064 17.8 10.7333L15.3 7.4C15.1185 7.15799 14.8377 7.01169 14.5367 7.00067Z" fill="#212121"/>
</svg>

<svg viewBox="0 0 20 20" fill="none" xmlns="http://www.w3.org/2000/svg" height="1em" width="1em">
  <path d="M13.5 9h-1.268l1.732-3a1 1 0 0 0-.366-1.366L11 3.134a1 1 0 0 0-1.366.366l-2.5 4.33A1 1 0 0 0 7.257 9H6.5a.5.5 0 0 0 0 1h7a.5.5 0 0 0 0-1Zm-3-5 2.598 1.5-2.02 3.5H9.16L8 8.33 10.5 4Zm4.037 3-.577 1h.54l2.25 3H3.25L5.5 8h.406a.961.961 0 0 1 .078-.17l.48-.83H5.5a1 1 0 0 0-.8.4l-2.5 3.333a1 1 0 0 0-.2.6V16a1 1 0 0 0 1 1h14a1 1 0 0 0 1-1v-4.667a1 1 0 0 0-.2-.6L15.3 7.4a1 1 0 0 0-.763-.4Z" fill="#212121"/>
</svg>
